X:1
T: The Morgan Rattler
P:Ryan's Version
R:Jig
Q:180
K:D
M:6/8
L:1/16
d2|A2G2F2 E2F2G2|F2E2F2 D4d2|A2G2F2 E2F2G2|B4A2 B2c2d2|A2G2F2 E2F2G2|F2E2F2 D4d2|d2c2B2 e2c2A2|B4A2 B2c2d2|
D4d2 d2c2d2|E4e2 e2d2e2|D4d2 d2c2d2|B4A2 B2c2d2|D4d2 d2c2d2|E4d2 e2f2g2|a2g2f2 e2d2c2|B4A2 B2c2d2|
D4d2 d2c2d2|E4e2 e2d2e2|D4d2 d2c2d2|B4A2 B2c2d2|D4d2 d2c2d2|E4d2 e2f2g2|a2g2f2 e2d2c2|B4A2 B2c2d2|
A2G2F2 E2F2G2|F2E2F2 D4d2|A2G2F2 E2F2G2|B4A2 B2c2d2|A2G2F2 E2F2G2|F2E2F2 D4d2|d2c2B2 e2c2A2|B2c2d2 d4||
